newicons/rakuten_rakuma.svg

<?xml version="1.0" encoding="UTF-8" standalone="no"?>
<svg
   viewBox="0 0 48 48"
   version="1.1"
   id="svg1"
   sodipodi:docname="rakuten_rakuma.svg"
   inkscape:version="1.2.2 (b0a8486541, 2022-12-01)"
   xmlns:inkscape="http://www.inkscape.org/namespaces/inkscape"
   xmlns:sodipodi="http://sodipodi.sourceforge.net/DTD/sodipodi-0.dtd"
   xmlns="http://www.w3.org/2000/svg"
   xmlns:svg="http://www.w3.org/2000/svg">
  <sodipodi:namedview
     id="namedview1"
     pagecolor="#505050"
     bordercolor="#eeeeee"
     borderopacity="1"
     inkscape:showpageshadow="0"
     inkscape:pageopacity="0"
     inkscape:pagecheckerboard="0"
     inkscape:deskcolor="#505050"
     inkscape:zoom="12.59534"
     inkscape:cx="11.909167"
     inkscape:cy="30.963834"
     inkscape:window-width="1918"
     inkscape:window-height="1053"
     inkscape:window-x="0"
     inkscape:window-y="0"
     inkscape:window-maximized="1"
     inkscape:current-layer="svg1"
     showgrid="false" />
  <defs
     id="defs1">
    <style
       id="style1">.a { fill:none;stroke:#fff;stroke-linecap:round;stroke-linejoin:round; }
</style>
  </defs>
  <g
     id="g17783">
    <path
       style="fill:none;stroke:#ffffff;stroke-width:1;stroke-linecap:round;stroke-linejoin:round;stroke-dashoffset:3.6;stroke-opacity:1"
       d="M 8.7162166,8.5 H 39.283783 C 41.619567,8.5 43.5,9.9947027 43.5,11.851351 V 36.148649 C 43.5,38.005297 41.619567,39.5 39.283783,39.5 H 8.7162166 C 6.3804326,39.5 4.5,38.005297 4.5,36.148649 V 11.851351 C 4.5,9.9947027 6.3804326,8.5 8.7162166,8.5 Z"
       id="path17759" />
    <path
       style="fill:none;stroke:#ffffff;stroke-width:1;stroke-linecap:round;stroke-linejoin:round;stroke-dashoffset:3.6;stroke-opacity:1"
       d="M 30.5,8.4999928 V 39.499313"
       id="path17757" />
    <path
       style="fill:none;stroke:#ffffff;stroke-width:1;stroke-linecap:round;stroke-linejoin:round;stroke-dashoffset:3.6;stroke-opacity:1"
       d="M 17.5,8.4999928 V 39.499313"
       id="path17755" />
    <g
       id="g17774">
      <path
         style="fill:none;stroke:#ffffff;stroke-width:1;stroke-linecap:round;stroke-linejoin:round;stroke-dashoffset:3.6;stroke-opacity:1"
         d="M 15.22509,20.14816 6.9479351,20.796426"
         id="path17753" />
      <path
         style="fill:none;stroke:#ffffff;stroke-width:1;stroke-linecap:round;stroke-linejoin:round;stroke-dashoffset:3.6;stroke-opacity:1"
         d="M 7.9993759,18.667871 V 11.846847 H 10.2755 c 1.313148,0 2.363667,1.023154 2.363667,2.302097 0,1.278943 -1.050519,2.302097 -2.363667,2.302097 H 7.9993759"
         id="path17751" />
      <path
         style="fill:none;stroke:#ffffff;stroke-width:1;stroke-linecap:round;stroke-linejoin:round;stroke-dashoffset:3.6;stroke-opacity:1"
         d="m 10.361003,16.449055 2.190626,2.133556"
         id="path10388-7" />
    </g>
  </g>
</svg>

<?xml version="1.0" encoding="UTF-8"?><svg id="a" xmlns="http://www.w3.org/2000/svg" viewBox="0 0 48 48"><defs><style>.j{fill:none;stroke:#fff;stroke-linecap:round;stroke-linejoin:round;}</style></defs><g id="b"><path id="c" class="j" d="M8.7162,8.5h30.5676c2.3358,0,4.2162,1.4947,4.2162,3.3514v24.2973c0,1.8567-1.8804,3.3514-4.2162,3.3514H8.7162c-2.3358,0-4.2162-1.4947-4.2162-3.3514V11.8514c0-1.8566,1.8804-3.3514,4.2162-3.3514Z"/><path id="d" class="j" d="M30.5,8.5v30.9993"/><path id="e" class="j" d="M17.5,8.5v30.9993"/><g id="f"><path id="g" class="j" d="M15.2251,20.1482l-8.2772.6483"/><path id="h" class="j" d="M7.9994,18.6679v-6.821h2.2761c1.3131,0,2.3637,1.0232,2.3637,2.3021s-1.0505,2.3021-2.3637,2.3021h-2.2761"/><path id="i" class="j" d="M10.361,16.4491l2.1906,2.1336"/></g></g></svg>
